X: 4331
T: Master F. Sitwell's    Strathspey
C: by Nath. Gow
%R: C
N: This is version 2, for ABC software that understands voice overlays and crec/dim symbols.
B: Niel Gow & Sons "A Fourth Collection of Strathspey Reels, etc." v.4 p.33 #1
% dim/cres..endo symbols:
U: p=!crescendo(!
U: P=!crescendo)!
U: Q=!diminuendo(!
U: q=!diminuendo)!
Z: 2022 John Chambers <jc:trillian.mit.edu>
M: C
L: 1/8
K: Bb
% - - - - - - - - - -
V: 1 staves=2
D/E/ |\
F>BD>B TG2EG | ~F>f (e/d/).c/.B/ Ac-cd/e/ | .d.B FD TG2E>G | ~F>B A>c {Bc}dBB :|\
d/e/ | f>dg>e Tf2{=ef}dg | f<dg>B Ac-cd/e/ |
pf>dg>e f>db>dP | Q(e/d/).c/.B/ Af dB-Bd/e/q ||\
f>dg>e Tf2{=ef}dg | f<d g>B Ac-cd/e/ | .f.d .B.F (G3/A//B//) E>G | TF>B A>c {Bc}dB-B |]
% - - - - - - - - - -
% Voice 2 preserves the staff layout in the book.
V: 2 clef=bass middle=d
z | B2d2 e2e2 | d2B2 f2F2 | B2d2 e2e2 | f2F2 B2B :| z | d2e2 d2e2 & B2B2 B2B2 | d2e2
f2F2 | pd2e2 f2g2P | Qe2f2 B2B2q || d2e2 d2e2 & B2B2 B2B2 | d2e2 f2F2 | B2d2 e2e2 | f2F2 B2B |]


